svg/elixir.svg

<svg viewBox="0 0 20 20" xmlns="http://www.w3.org/2000/svg">
<rect width="100%" height="100%" fill="#7C6CAB"/>
<path d="M10.5668 2.57563V1.26242C10.4775 1.24586 10.3862 1.24586 10.2969 1.26242C9.87012 1.43583 9.48406 1.70464 9.16527 2.05035C8.98516 2.22538 8.81528 2.41176 8.65656 2.60846C8.49046 2.80545 8.33473 3.00243 8.18939 3.21035C7.92984 3.61526 7.68068 4.02016 7.4419 4.43601C7.20313 4.85186 6.98511 5.2896 6.78786 5.70545C6.49717 6.31828 6.22724 6.93111 5.95732 7.54394C5.82236 7.88319 5.68739 8.22244 5.56281 8.56168C5.30899 9.18209 5.09059 9.81795 4.90877 10.4658C4.71743 11.1549 4.59222 11.8625 4.53502 12.5779C4.48833 12.963 4.48833 13.3528 4.53502 13.7379V13.8911C4.56184 14.2324 4.63527 14.5678 4.75304 14.887C4.84681 15.1783 4.96494 15.4603 5.10602 15.7296C5.34511 16.1957 5.64185 16.6263 5.98846 17.01C6.14419 17.1741 6.3103 17.3164 6.48679 17.4696C6.89999 17.8341 7.36622 18.126 7.86755 18.3342C7.99214 18.3342 8.1271 18.4217 8.26206 18.4655C8.35997 18.509 8.46056 18.5456 8.56313 18.5749C8.62678 18.6033 8.69282 18.6253 8.76038 18.6406L9.28985 18.7391H9.81932C10.1661 18.7445 10.5129 18.7262 10.8575 18.6843C11.1378 18.6296 11.4181 18.5749 11.6984 18.4983C12.188 18.3414 12.6558 18.1169 13.0896 17.8308L13.2972 17.6994C13.7301 17.392 14.1213 17.0238 14.4599 16.6051C14.5326 16.5175 14.5845 16.4081 14.6468 16.3206C14.9131 15.9149 15.1261 15.4732 15.2801 15.0074C15.3844 14.7065 15.4575 14.3946 15.4981 14.0772V13.3987C15.5083 12.9805 15.477 12.5624 15.4047 12.1511C15.304 11.7763 15.1756 11.4104 15.0206 11.0568C14.8699 10.7369 14.6964 10.4296 14.5015 10.1375C14.2835 9.80923 14.0447 9.49187 13.8059 9.17451C13.5671 8.85715 13.3699 8.6164 13.1415 8.34281L12.7054 7.7847L12.4251 7.46734C12.3758 7.3792 12.3203 7.29507 12.259 7.21564C11.9469 6.72286 11.6892 6.19416 11.4908 5.63979C11.3454 5.33337 11.2208 5.02696 11.0859 4.7096C11.0859 4.61111 11.0859 4.46884 11.0028 4.37035C10.8407 3.91634 10.7191 3.44739 10.6395 2.9696C10.6395 2.80545 10.6395 2.77261 10.5668 2.56469" fill="white"/>
</svg>

<svg xmlns="http://www.w3.org/2000/svg" viewBox="0 0 20 20">
  <rect width="100%" height="100%" fill="#7C6CAB"/>
  <path fill="#fff" d="M10.57 2.58V1.26a.74.74 0 0 0-.27 0c-.43.18-.82.44-1.13.79a8.38 8.38 0 0 0-.98 1.16c-.26.4-.5.81-.75 1.23-.24.41-.45.85-.65 1.27-.3.6-.56 1.22-.83 1.83l-.4 1.02c-.25.62-.47 1.26-.65 1.9-.2.7-.32 1.4-.37 2.12-.05.38-.05.77 0 1.16v.15a5.35 5.35 0 0 0 .57 1.84c.24.47.53.9.88 1.28.15.16.32.3.5.46.41.36.88.66 1.38.86.12 0 .26.1.4.14.09.04.2.08.3.1.06.03.12.06.19.07l.53.1h.53c.35 0 .7-.01 1.04-.06.28-.05.56-.1.84-.18.49-.16.96-.38 1.39-.67l.2-.13c.44-.3.83-.68 1.17-1.1.07-.08.12-.2.19-.28a5.6 5.6 0 0 0 .85-2.24v-.68c0-.42-.02-.84-.1-1.25a7.13 7.13 0 0 0-.9-2.01 20.24 20.24 0 0 0-1.36-1.8l-.43-.56-.28-.31c-.05-.1-.11-.17-.17-.25a7.95 7.95 0 0 1-.77-1.58c-.14-.3-.27-.61-.4-.93 0-.1 0-.24-.09-.34a8.15 8.15 0 0 1-.36-1.4c0-.16 0-.2-.07-.4"/>
</svg>
